X: 286
%
T: Lady Baird
C:A. Gow
O:Scotland
B:Keith Norman MacDonald : "The Skye collection of the best reels & strathspeys extant" : 1887
Z:Ralph Palmer
R:Strathspey
M:C
L:1/8
K:A
a | e<cTc>B A>BA>E | F>AE>A F>AE>a | e<cTc<B A>GA>B | c<ee>^d e2e ::
=g | f<dTd>B c>d e>c | d<BTB>G A>Bc>E | F>AE>A F>AE>d | (d/2c/2)B/2A/2 (c/2B/2)A/2G/2 A2 A :]


